vsi/tag_light.svg

<svg viewBox="0 0 16 16" fill="none" xmlns="http://www.w3.org/2000/svg" height="1em" width="1em">
  <path fill-rule="evenodd" clip-rule="evenodd" d="M13.2002 2H8.01724L7.66424 2.146L1.00024 8.81V9.517L6.18324 14.7H6.89024L9.10531 12.4853C9.65832 12.7768 10.2677 12.9502 10.8945 12.9923C11.659 13.0437 12.424 12.8981 13.1162 12.5694C13.8085 12.2407 14.4048 11.74 14.8483 11.1151C15.2918 10.4902 15.5676 9.76192 15.6492 9H15.6493C15.6759 8.83446 15.6929 8.66751 15.7003 8.5C15.6989 7.30693 15.2244 6.16311 14.3808 5.31948C14.1712 5.10988 13.9431 4.92307 13.7002 4.76064V2.5L13.2002 2ZM12.7002 4.25881C12.223 4.08965 11.7162 4.00057 11.2003 4C11.0676 4 10.9405 4.05268 10.8467 4.14645C10.7529 4.24021 10.7003 4.36739 10.7003 4.5C10.7003 4.63261 10.7529 4.75979 10.8467 4.85355C10.9405 4.94732 11.0676 5 11.2003 5C11.7241 5 12.2358 5.11743 12.7002 5.33771V7.476L8.77506 11.4005C8.75767 11.4095 8.74079 11.4194 8.72449 11.4304C8.6685 11.468 8.6207 11.5166 8.58397 11.5731C8.57475 11.5874 8.56627 11.602 8.55856 11.617L6.53624 13.639L2.06124 9.163L8.22424 3H12.7002V4.25881ZM13.7002 6.0505C14.3409 6.70435 14.7003 7.58365 14.7003 8.5C14.6955 8.66769 14.6784 8.8348 14.6493 9H14.6492C14.5675 9.58097 14.3406 10.1319 13.9894 10.6019C13.6383 11.0719 13.1743 11.4457 12.6403 11.6888C12.1063 11.9319 11.5197 12.0363 10.9346 11.9925C10.5622 11.9646 10.1982 11.8772 9.85588 11.7348L13.5542 8.037L13.7002 7.683V6.0505Z" fill="#424242"/>
</svg>

<svg viewBox="0 0 16 16" fill="none" xmlns="http://www.w3.org/2000/svg" height="1em" width="1em">
  <path fill-rule="evenodd" clip-rule="evenodd" d="M13.2 2H8.017l-.353.146L1 8.81v.707L6.183 14.7h.707l2.215-2.215A4.481 4.481 0 0 0 15.65 9c.027-.166.044-.332.051-.5a4.505 4.505 0 0 0-2-3.74V2.5l-.5-.5Zm-.5 2.259A4.503 4.503 0 0 0 11.2 4a.5.5 0 1 0 0 1 3.5 3.5 0 0 1 1.5.338v2.138L8.775 11.4a.506.506 0 0 0-.216.217l-2.023 2.022-4.475-4.476L8.224 3H12.7v1.259Zm1 1.792a3.5 3.5 0 0 1 1 2.449 3.452 3.452 0 0 1-.05.5 3.487 3.487 0 0 1-4.794 2.735l3.698-3.698.146-.354V6.051Z" fill="#424242"/>
</svg>
